icon-svg/habbitat-martinelli.svg

<svg xmlns="http://www.w3.org/2000/svg" viewBox="0 0 24 24"><path fill="#44739e" d="M16.667 8.372v-.014c0-.011-.007-.03-.009-.037l-.015-.059a13.5 13.5 0 0 0-.711-2.176 6 6 0 0 0-.4-.801 6.1 6.1 0 0 0-1.137-1.405 3.8 3.8 0 0 0-1.371-.9 5 5 0 0 0-.862-.166q-.205-.024-.28-.025h-.006c-.052 0-.142.01-.279.025a5 5 0 0 0-.862.166 3.8 3.8 0 0 0-1.372.9 6.1 6.1 0 0 0-1.138 1.406 7 7 0 0 0-.4.801 13.6 13.6 0 0 0-.71 2.176l-.015.059-.009.037v.014c-.016.068-.068.301-.093.428v.008c.382-.061 1.911-.3 2.701-.385a16 16 0 0 1 2.118-.13h.113a16 16 0 0 1 2.119.13c.794.084 2.325.324 2.706.385v-.006c-.02-.131-.073-.363-.088-.431m1.026-3.752a6.7 6.7 0 0 0-2.042-1.694 3 3 0 0 0-.579-.182 1.4 1.4 0 0 0-.384-.034 1.2 1.2 0 0 0-.507.157 1.7 1.7 0 0 0-.4.326 6 6 0 0 1 .714.583 6.2 6.2 0 0 1 1.166 1.439 7 7 0 0 1 .4.816 14 14 0 0 1 .718 2.2l.012.048.012.051v.012l.043.191.019.006a2 2 0 0 0 .329.091 1 1 0 0 0 .366 0h.033a.93.93 0 0 0 .455-.194 2 2 0 0 0 .457-.48 3 3 0 0 0 .363-.569 7.3 7.3 0 0 0-1.175-2.767m-9.597.595a6.2 6.2 0 0 1 1.165-1.439 5.2 5.2 0 0 1 .943-.725 1.7 1.7 0 0 0-.378-.3 1.2 1.2 0 0 0-.507-.156 1.4 1.4 0 0 0-.384.034 3 3 0 0 0-.579.182 6.7 6.7 0 0 0-2.04 1.69A7.3 7.3 0 0 0 5.132 7.26a3 3 0 0 0 .363.57 2.1 2.1 0 0 0 .457.48.9.9 0 0 0 .451.193l.033.006a1 1 0 0 0 .366 0 1 1 0 0 0 .108-.023l.033-.144V8.33c0-.021.009-.038.013-.051l.012-.048a13.7 13.7 0 0 1 .718-2.2 7 7 0 0 1 .41-.816m2.208-2.214a2.4 2.4 0 0 1 .384-.154 5.4 5.4 0 0 1 .889-.171c.147-.017.235-.026.294-.027h.01c.058 0 .148.01.295.027a5.4 5.4 0 0 1 .889.171 2.6 2.6 0 0 1 .621.289 1.8 1.8 0 0 1 .437-.359l.035-.019A3.28 3.28 0 0 0 12.013 2h-.127a3.63 3.63 0 0 0-1.962.674 2 2 0 0 1 .38.327m5.658 17.361-.037-.059s-.134-.219-.319-.53a8 8 0 0 1-.531-1.2 22 22 0 0 1-.429-1.21 13.3 13.3 0 0 1-.6-2.227c-.09-.628-.271-1.246-.314-1.879a.6.6 0 0 0-.066-.25.8.8 0 0 0-.12-.162v-1.219a.34.34 0 0 0-.3-.331 1 1 0 0 0 .039-.292V9.572a.37.37 0 0 0-.231-.377 1.3 1.3 0 0 0 .015-.209v-.508l-.149-.011v.519c0 .5-.235.553-.411.553h-.883q-.451 0-.452-.525v-.567l-.149.008v.559a1 1 0 0 0 .017.191.44.44 0 0 0-.235.423v1.4a.8.8 0 0 0 .047.283.38.38 0 0 0-.258.358v1.117a.4.4 0 0 0-.143.15.3.3 0 0 0-.024.105 1.5 1.5 0 0 0-.018.285 10.6 10.6 0 0 1-.26 1.623c-.084.4-.14.667-.235 1.041a22 22 0 0 1-.742 2.291 8.6 8.6 0 0 1-.495 1.169c-.027.051-.2.333-.447.738l-.156.253a.5.5 0 0 0-.188.359c0 .664 1.873 1.2 4.182 1.2s4.181-.539 4.181-1.2a.58.58 0 0 0-.289-.438M10.96 9.628a.33.33 0 0 1 .127-.282.5.5 0 0 0 .129.191.6.6 0 0 0 .415.146h.874a.52.52 0 0 0 .4-.159.5.5 0 0 0 .108-.189.26.26 0 0 1 .116.237v1.431a.57.57 0 0 1-.147.438.54.54 0 0 1-.376.116h-1.078q-.572-.002-.573-.526Zm2.44 3.184c0 .192-.066.446-.643.446h-1.301c-.321 0-.7-.073-.7-.422v-1.163a.24.24 0 0 1 .179-.229.5.5 0 0 0 .112.116.8.8 0 0 0 .493.141h1.085a.7.7 0 0 0 .477-.153.5.5 0 0 0 .082-.101l.04-.015a.193.193 0 0 1 .183.19Z"/></svg>

<?xml version="1.0" encoding="UTF-8"?>
<svg width="24px" fill="#44739e" height="24px" viewBox="0 0 24 24" version="1.1" xmlns="http://www.w3.org/2000/svg" xmlns:xlink="http://www.w3.org/1999/xlink">
            <path d="M 16.661,8.37 V 8.356 c 0,-0.011 -0.007,-0.03 -0.009,-0.037 C 16.65,8.312 16.647,8.301 16.637,8.26 A 13.542,13.542 0 0 0 15.926,6.084 6.374,6.374 0 0 0 15.526,5.284 6.091,6.091 0 0 0 14.39,3.879 3.763,3.763 0 0 0 13.019,2.979 5.145,5.145 0 0 0 12.157,2.813 C 12.02,2.798 11.929,2.788 11.878,2.788 h -0.006 c -0.052,0 -0.142,0.01 -0.279,0.025 a 5.12,5.12 0 0 0 -0.862,0.166 3.759,3.759 0 0 0 -1.372,0.9 6.117,6.117 0 0 0 -1.137,1.406 6.665,6.665 0 0 0 -0.4,0.8 13.562,13.562 0 0 0 -0.71,2.176 C 7.102,8.302 7.099,8.313 7.097,8.32 A 0.251,0.251 0 0 0 7.088,8.357 V 8.371 C 7.072,8.439 7.02,8.671 6.995,8.798 v 0.008 c 0.382,-0.061 1.911,-0.3 2.7,-0.384 a 15.979,15.979 0 0 1 2.118,-0.13 h 0.057 0.056 a 15.971,15.971 0 0 1 2.118,0.13 c 0.794,0.083 2.324,0.323 2.705,0.384 V 8.8 C 16.729,8.669 16.676,8.438 16.661,8.37 Z M 17.687,4.619 A 6.715,6.715 0 0 0 15.645,2.925 3.017,3.017 0 0 0 15.066,2.743 1.438,1.438 0 0 0 14.683,2.709 a 1.219,1.219 0 0 0 -0.507,0.157 1.718,1.718 0 0 0 -0.4,0.326 6.173,6.173 0 0 1 0.714,0.583 6.239,6.239 0 0 1 1.165,1.439 6.777,6.777 0 0 1 0.4,0.815 13.775,13.775 0 0 1 0.718,2.2 l 0.012,0.048 a 0.494,0.494 0 0 1 0.012,0.051 V 8.34 c 0.009,0.042 0.026,0.113 0.043,0.19 l 0.019,0.006 a 2.011,2.011 0 0 0 0.329,0.091 1.039,1.039 0 0 0 0.366,0 h 0.033 A 0.929,0.929 0 0 0 18.041,8.434 2.044,2.044 0 0 0 18.498,7.954 3,3 0 0 0 18.861,7.385 7.288,7.288 0 0 0 17.687,4.619 Z M 8.093,5.214 A 6.235,6.235 0 0 1 9.257,3.775 5.219,5.219 0 0 1 10.2,3.05 1.738,1.738 0 0 0 9.822,2.75 1.222,1.222 0 0 0 9.315,2.594 1.4,1.4 0 0 0 8.932,2.628 3.017,3.017 0 0 0 8.353,2.81 6.7,6.7 0 0 0 6.313,4.5 v 0 A 7.3,7.3 0 0 0 5.13,7.258 2.989,2.989 0 0 0 5.493,7.828 2.086,2.086 0 0 0 5.95,8.308 0.915,0.915 0 0 0 6.4,8.5 l 0.033,0.006 a 1.034,1.034 0 0 0 0.366,0 0.709,0.709 0 0 0 0.108,-0.023 C 6.92,8.425 6.932,8.373 6.94,8.34 V 8.328 C 6.94,8.307 6.949,8.29 6.953,8.277 L 6.965,8.229 a 13.672,13.672 0 0 1 0.718,-2.2 6.629,6.629 0 0 1 0.41,-0.815 z M 10.3,3 A 2.386,2.386 0 0 1 10.684,2.846 5.355,5.355 0 0 1 11.573,2.675 C 11.72,2.658 11.808,2.649 11.867,2.648 h 0.01 c 0.058,0 0.147,0.01 0.294,0.027 a 5.355,5.355 0 0 1 0.889,0.171 2.555,2.555 0 0 1 0.621,0.289 1.792,1.792 0 0 1 0.437,-0.359 L 14.153,2.757 A 3.282,3.282 0 0 0 12.008,2 Q 11.945,2 11.882,2 A 3.633,3.633 0 0 0 9.92,2.673 1.874,1.874 0 0 1 10.3,3 Z m 5.656,17.356 -0.037,-0.059 c 0,0 -0.134,-0.219 -0.319,-0.53 a 7.724,7.724 0 0 1 -0.531,-1.2 C 14.959,18.28 14.82,17.914 14.641,17.358 a 13.259,13.259 0 0 1 -0.6,-2.227 c -0.09,-0.628 -0.271,-1.245 -0.314,-1.878 a 0.644,0.644 0 0 0 -0.066,-0.25 0.748,0.748 0 0 0 -0.12,-0.162 v -1.219 a 0.338,0.338 0 0 0 -0.3,-0.33 A 0.989,0.989 0 0 0 13.28,11 V 9.569 A 0.374,0.374 0 0 0 13.049,9.192 1.342,1.342 0 0 0 13.064,8.983 V 8.475 L 12.915,8.464 v 0.519 c 0,0.5 -0.235,0.553 -0.411,0.553 h -0.882 c -0.3,0 -0.452,-0.176 -0.452,-0.525 V 8.444 l -0.149,0.008 v 0.559 a 1.028,1.028 0 0 0 0.017,0.191 0.442,0.442 0 0 0 -0.235,0.423 v 1.4 a 0.8,0.8 0 0 0 0.047,0.283 0.381,0.381 0 0 0 -0.258,0.357 v 1.117 a 0.377,0.377 0 0 0 -0.143,0.15 0.317,0.317 0 0 0 -0.024,0.105 1.535,1.535 0 0 0 -0.018,0.285 10.546,10.546 0 0 1 -0.26,1.622 c -0.084,0.4 -0.14,0.667 -0.235,1.041 a 21.662,21.662 0 0 1 -0.742,2.29 8.61,8.61 0 0 1 -0.494,1.169 c -0.027,0.051 -0.2,0.333 -0.447,0.738 -0.067,0.11 -0.118,0.192 -0.156,0.253 a 0.5,0.5 0 0 0 -0.188,0.358 c 0,0.664 1.872,1.2 4.18,1.2 2.308,0 4.18,-0.539 4.18,-1.2 a 0.578,0.578 0 0 0 -0.289,-0.437 z m -5,-10.731 a 0.331,0.331 0 0 1 0.127,-0.282 0.529,0.529 0 0 0 0.129,0.191 0.594,0.594 0 0 0 0.415,0.146 H 12.5 a 0.516,0.516 0 0 0 0.4,-0.159 0.544,0.544 0 0 0 0.108,-0.189 0.259,0.259 0 0 1 0.116,0.237 V 11 a 0.571,0.571 0 0 1 -0.147,0.438 0.539,0.539 0 0 1 -0.376,0.115 h -1.077 c -0.38,0 -0.573,-0.177 -0.573,-0.525 z m 2.439,3.183 c 0,0.192 -0.066,0.446 -0.643,0.446 h -1.3 c -0.321,0 -0.7,-0.073 -0.7,-0.422 v -1.163 a 0.239,0.239 0 0 1 0.179,-0.228 0.509,0.509 0 0 0 0.112,0.115 0.8,0.8 0 0 0 0.493,0.141 h 1.084 a 0.69,0.69 0 0 0 0.477,-0.153 0.473,0.473 0 0 0 0.082,-0.1 l 0.04,-0.015 a 0.193,0.193 0 0 1 0.183,0.189 z"/>

</svg>
